SSG/public/assets/profile.svg

<svg width="162" height="163" viewBox="0 0 162 163" fill="none" xmlns="http://www.w3.org/2000/svg">
<g clip-path="url(#clip0_253_244)">
<circle cx="81" cy="81.7935" r="74" fill="#F8F8F8"/>
<path d="M81 0.793457C103.367 0.793457 123.617 9.86008 138.275 24.5182C152.933 39.1767 162 59.4267 162 81.7935C162 104.16 152.933 124.41 138.275 139.069C123.617 153.727 103.367 162.793 81 162.793C58.6332 162.793 38.3832 153.727 23.7248 139.069C9.06662 124.41 0 104.16 0 81.7935C0 59.4267 9.06662 39.1767 23.7248 24.5182C38.3832 9.86008 58.6332 0.793457 81 0.793457ZM65.3787 100.96C65.0648 100.553 66.1995 97.7584 66.4681 97.3065C63.392 94.5693 60.9614 91.8077 60.4434 86.1247L60.1134 86.1317C59.3515 86.1216 58.6171 85.9463 57.9292 85.5543C56.8278 84.9281 56.0529 83.8523 55.5299 82.6395C54.4225 80.0947 50.774 71.6482 56.3327 72.3158C53.2246 66.5114 60.2589 56.5955 48.1267 52.928C58.0808 40.3208 79.0835 20.8821 94.4748 40.3813C111.322 42.0139 116.577 62.0352 105.233 73.0005C105.897 73.0246 106.524 73.1777 107.078 73.4745C109.187 74.6041 109.256 77.0556 108.702 79.1125C108.153 80.8303 107.457 81.9931 106.8 83.6679C106.001 85.9292 104.834 86.3503 102.578 86.1067C102.463 91.6976 99.8793 94.4418 96.402 97.7264L97.3535 100.95C92.6906 110.841 73.3202 111.239 65.3787 100.96ZM24.9176 125.528C28.7385 109.223 39.3635 114.962 59.8293 102.156C67.1009 117.329 96.6545 118.431 102.715 102.156C120.228 113.352 134.029 108.777 137.506 124.981C146.671 113.008 152.117 98.0368 152.117 81.7935C152.117 62.1548 144.157 44.3753 131.288 31.5057C118.418 18.6369 100.639 10.6767 81 10.6767C61.3613 10.6767 43.5818 18.6369 30.7123 31.5057C17.8434 44.3753 9.88327 62.1548 9.88327 81.7935C9.88327 98.2855 15.4976 113.465 24.9176 125.528Z" fill="#313131"/>
</g>
<defs>
<clipPath id="clip0_253_244">
<rect width="162" height="162" fill="white" transform="translate(0 0.793457)"/>
</clipPath>
</defs>
</svg>

<svg width="162" height="163" fill="none" xmlns="http://www.w3.org/2000/svg"><g clip-path="url(#a)"><circle cx="81" cy="81.793" r="74" fill="#F8F8F8"/><path d="M81 .793c22.367 0 42.617 9.067 57.275 23.725C152.933 39.177 162 59.427 162 81.793c0 22.367-9.067 42.617-23.725 57.276-14.658 14.658-34.908 23.724-57.275 23.724-22.367 0-42.617-9.066-57.275-23.724C9.067 124.41 0 104.16 0 81.794c0-22.367 9.067-42.617 23.725-57.276C38.383 9.86 58.633.793 81 .793ZM65.379 100.96c-.314-.407.82-3.202 1.09-3.653-3.077-2.738-5.508-5.5-6.026-11.182l-.33.007a4.456 4.456 0 0 1-2.184-.578c-1.101-.626-1.876-1.702-2.4-2.915-1.107-2.544-4.755-10.99.804-10.323-3.108-5.805 3.926-15.72-8.206-19.388 9.954-12.607 30.956-32.046 46.348-12.547 16.847 1.633 22.102 21.654 10.758 32.62a4.203 4.203 0 0 1 1.845.474c2.109 1.13 2.178 3.58 1.624 5.638-.549 1.717-1.245 2.88-1.902 4.555-.799 2.261-1.966 2.682-4.222 2.439-.115 5.59-2.699 8.335-6.176 11.62l.951 3.223c-4.662 9.891-24.033 10.289-31.974.01Zm-40.461 24.568c3.82-16.305 14.446-10.566 34.911-23.372 7.272 15.173 36.825 16.275 42.886 0 17.513 11.196 31.314 6.621 34.791 22.825 9.165-11.973 14.611-26.944 14.611-43.188 0-19.638-7.96-37.418-20.829-50.287-12.87-12.87-30.649-20.83-50.288-20.83-19.639 0-37.418 7.96-50.288 20.83C17.843 44.376 9.883 62.155 9.883 81.793c0 16.492 5.615 31.672 15.035 43.735Z" fill="#313131"/></g><defs><clipPath id="a"><path fill="#fff" transform="translate(0 .793)" d="M0 0h162v162H0z"/></clipPath></defs></svg>
